X: 1430
T: An Túll
R: polka
M: 2/4
K: Gmajor
|:g>e dB/B/|AG/A/ Bd|g>e dB/B/|de g2|
g>e dB/B/|AG/A/ Bd|e>e ed|efg2:|
|:g>abg|eg ed|g>abg|ef g2|
bg af|e/e/g ed|B/BB/ BA/G/|Bdg2:|

